groups/alkanes/butyl.svg

<?xml version='1.0' encoding='iso-8859-1'?>
<svg version='1.1' baseProfile='full'
              xmlns='http://www.w3.org/2000/svg'
                      xmlns:rdkit='http://www.rdkit.org/xml'
                      xmlns:xlink='http://www.w3.org/1999/xlink'
                  xml:space='preserve'
width='256px' height='256px' viewBox='0 0 256 256'>
<!-- END OF HEADER -->
<rect style='opacity:1.0;fill:#FFFFFF;stroke:none' width='256.0' height='256.0' x='0.0' y='0.0'> </rect>
<path class='bond-0 atom-0 atom-1' d='M 25.4,126.7 L 69.3,101.4' style='fill:none;fill-rule:evenodd;stroke:#000000;stroke-width:2.0px;stroke-linecap:butt;stroke-linejoin:miter;stroke-opacity:1' />
<path class='bond-1 atom-1 atom-2' d='M 69.3,101.4 L 113.1,126.8' style='fill:none;fill-rule:evenodd;stroke:#000000;stroke-width:2.0px;stroke-linecap:butt;stroke-linejoin:miter;stroke-opacity:1' />
<path class='bond-2 atom-2 atom-3' d='M 113.1,126.8 L 156.9,101.5' style='fill:none;fill-rule:evenodd;stroke:#000000;stroke-width:2.0px;stroke-linecap:butt;stroke-linejoin:miter;stroke-opacity:1' />
<path class='bond-3 atom-3 atom-4' d='M 156.9,101.5 L 190.0,120.6' style='fill:none;fill-rule:evenodd;stroke:#000000;stroke-width:2.0px;stroke-linecap:butt;stroke-linejoin:miter;stroke-opacity:1' />
<path d='M 67.1,102.7 L 69.3,101.4 L 71.5,102.7' style='fill:none;stroke:#000000;stroke-width:2.0px;stroke-linecap:butt;stroke-linejoin:miter;stroke-miterlimit:10;stroke-opacity:1;' />
<path d='M 110.9,125.5 L 113.1,126.8 L 115.3,125.5' style='fill:none;stroke:#000000;stroke-width:2.0px;stroke-linecap:butt;stroke-linejoin:miter;stroke-miterlimit:10;stroke-opacity:1;' />
<path d='M 154.7,102.8 L 156.9,101.5 L 158.6,102.4' style='fill:none;stroke:#000000;stroke-width:2.0px;stroke-linecap:butt;stroke-linejoin:miter;stroke-miterlimit:10;stroke-opacity:1;' />
<path class='atom-1' d='M38.0662,148.622 C39.7106,147.675 38.4473,145.482 36.8029,146.43 C35.1585,147.377 33.8952,145.185 35.5396,144.237 C37.184,143.29 35.9207,141.097 34.2763,142.045 C32.6319,142.992 31.3686,140.8 33.013,139.852 C34.6574,138.905 33.3941,136.712 31.7497,137.66 C30.1053,138.607 28.842,136.414 30.4864,135.467 C32.1308,134.52 30.8674,132.327 29.223,133.274 C27.5786,134.222 26.3153,132.029 27.9597,131.082 C29.6041,130.134 28.3408,127.942 26.6964,128.889 C25.052,129.837 23.7887,127.644 25.4331,126.697 C27.0775,125.749 25.8142,123.557 24.1698,124.504 C22.5254,125.452 21.2621,123.259 22.9065,122.312 C24.5509,121.364 23.2876,119.172 21.6432,120.119 C19.9988,121.066 18.7355,118.874 20.3799,117.926 C22.0243,116.979 20.761,114.786 19.1166,115.734 C17.4722,116.681 16.2088,114.489 17.8532,113.541 C19.4976,112.594 18.2343,110.401 16.5899,111.349 C14.9455,112.296 13.6822,110.104 15.3266,109.156 C16.971,108.209 15.7077,106.016 14.0633,106.964 C12.4189,107.911 11.1556,105.718 12.8,104.771' style='fill:none;stroke:#7F7F7F;stroke-width:2.0px;stroke-linecap:butt;stroke-linejoin:miter;stroke-opacity:1' />
<text x='191.6' y='142.0' class='atom-4' style='font-size:30px;font-style:normal;font-weight:normal;fill-opacity:1;stroke:none;font-family:sans-serif;text-anchor:start;fill:#000000' >C</text>
<text x='212.6' y='142.0' class='atom-4' style='font-size:30px;font-style:normal;font-weight:normal;fill-opacity:1;stroke:none;font-family:sans-serif;text-anchor:start;fill:#000000' >H</text>
<text x='233.5' y='154.2' class='atom-4' style='font-size:20px;font-style:normal;font-weight:normal;fill-opacity:1;stroke:none;font-family:sans-serif;text-anchor:start;fill:#000000' >3</text>
</svg>

<svg height="256" viewBox="0 0 256 256" width="256" xmlns="http://www.w3.org/2000/svg"><path d="m0 0h256v256h-256z" fill="#fff"/><g fill="none" stroke-width="2"><path d="m25.4 126.7 43.9-25.3" stroke="#000"/><path d="m69.3 101.4 43.8 25.4" stroke="#000"/><path d="m113.1 126.8 43.8-25.3" stroke="#000"/><path d="m156.9 101.5 33.1 19.1" stroke="#000"/><path d="m67.1 102.7 2.2-1.3 2.2 1.3" stroke="#000" stroke-miterlimit="10"/><path d="m110.9 125.5 2.2 1.3 2.2-1.3" stroke="#000" stroke-miterlimit="10"/><path d="m154.7 102.8 2.2-1.3 1.7.9" stroke="#000" stroke-miterlimit="10"/><path d="m38.066 148.622c1.645-.947.381-3.14-1.263-2.192-1.644.947-2.908-1.245-1.263-2.193 1.644-.947.381-3.14-1.264-2.192-1.644.947-2.907-1.245-1.263-2.193 1.644-.947.381-3.14-1.263-2.192-1.645.947-2.908-1.246-1.264-2.193 1.645-.947.381-3.14-1.263-2.193-1.644.948-2.908-1.245-1.263-2.192 1.644-.948.381-3.14-1.264-2.193-1.644.948-2.907-1.245-1.263-2.192 1.645-.948.381-3.14-1.263-2.193-1.645.948-2.908-1.245-1.263-2.192 1.644-.948.381-3.14-1.264-2.193-1.644.947-2.907-1.245-1.263-2.193 1.644-.947.381-3.14-1.263-2.192-1.645.947-2.908-1.245-1.264-2.193 1.645-.947.381-3.14-1.263-2.192-1.644.947-2.908-1.245-1.263-2.193 1.644-.947.381-3.14-1.264-2.192-1.644.947-2.907-1.246-1.263-2.193" stroke="#7f7f7f"/></g><text font-family="sans-serif" font-size="30" x="191.6" y="142">C</text><text font-family="sans-serif" font-size="30" x="212.6" y="142">H</text><text font-family="sans-serif" font-size="20" x="233.5" y="154.2">3</text></svg>
